svg/fluentui-system-icons/ic_fluent_equal_off_20_regular.svg

<svg width="20" height="20" viewBox="0 0 20 20" fill="none" xmlns="http://www.w3.org/2000/svg">
<path d="M2.85355 2.14645C2.65829 1.95118 2.34171 1.95118 2.14645 2.14645C1.95118 2.34171 1.95118 2.65829 2.14645 2.85355L6.29289 7H3.5C3.22386 7 3 7.22386 3 7.5C3 7.77614 3.22386 8 3.5 8H7.29289L11.2929 12H3.5C3.22386 12 3 12.2239 3 12.5C3 12.7761 3.22386 13 3.5 13H12.2929L17.1464 17.8536C17.3417 18.0488 17.6583 18.0488 17.8536 17.8536C18.0488 17.6583 18.0488 17.3417 17.8536 17.1464L2.85355 2.14645ZM14.1213 12L15.1213 13H16.5C16.7761 13 17 12.7761 17 12.5C17 12.2239 16.7761 12 16.5 12H14.1213ZM9.12134 7L10.1213 8H16.5C16.7761 8 17 7.77614 17 7.5C17 7.22386 16.7761 7 16.5 7H9.12134Z" fill="#212121"/>
</svg>

<svg xmlns="http://www.w3.org/2000/svg" width="20" height="20"><path d="M2.854 2.146a.5.5 0 1 0-.708.708L6.293 7H3.5a.5.5 0 0 0 0 1h3.793l4 4H3.5a.5.5 0 0 0 0 1h8.793l4.853 4.854a.5.5 0 0 0 .708-.708l-15-15ZM14.12 12l1 1h1.38a.5.5 0 0 0 0-1h-2.379Zm-5-5 1 1h6.38a.5.5 0 0 0 0-1H9.121Z"/></svg>
